svgs/shizuku.svg

<svg width="192" height="192" viewBox="0 0 192 192" fill="none" xmlns="http://www.w3.org/2000/svg">
<path d="M104.746 164.165C90.7787 161.567 75.6992 156.353 65.9936 150.767C51.5313 142.443 35.6517 127.407 28.2549 115.033C20.1001 101.391 19.9399 92.004 27.6527 79.7444C31.4423 73.7207 36.0924 68.6192 42.6858 63.252C49.3561 57.8223 57.0637 53.4179 61.778 52.342C64.9086 51.6276 65.2595 51.3807 65.3876 49.8021C65.8148 44.539 75.351 31.5449 81.8451 27.3768L83.9902 26L88.5115 30.0206C95.91 36.5997 102.286 45.5968 103.708 51.4635C104.185 53.4315 104.436 53.608 107.701 54.2728C115.34 55.8283 128.48 62.6964 134.981 68.5323L137.947 71.1953L141.948 70.593C147.694 69.7279 160.505 71.3051 165.962 73.5495L170 75.2104L169.401 78.0882C168.013 84.7603 162.81 94.9128 157.229 101.842C155.398 104.116 155.297 104.472 155.624 107.535C155.816 109.332 155.732 113.779 155.436 117.417C153.694 138.883 142.104 158.238 127.526 164.028C122.998 165.826 122.388 165.905 116.216 165.507C112.628 165.275 107.466 164.671 104.746 164.165H104.746Z" stroke="black" stroke-width="12" stroke-linecap="round" stroke-linejoin="round"/>
<path d="M126.372 114.325C128.915 114.532 131.144 112.638 131.35 110.095C131.557 107.552 129.663 105.324 127.12 105.117C124.577 104.911 122.348 106.805 122.142 109.348C121.935 111.89 123.829 114.119 126.372 114.325Z" fill="black" stroke="black" stroke-width="2.60631" stroke-linecap="round" stroke-linejoin="round"/>
<path d="M73.0317 83.5291C75.5745 83.7355 77.8031 81.8415 78.0095 79.2988C78.2159 76.756 76.3219 74.5273 73.7792 74.3209C71.2364 74.1145 69.0077 76.0085 68.8013 78.5513C68.5949 81.0941 70.4889 83.3227 73.0317 83.5291Z" fill="black" stroke="black" stroke-width="2.60631" stroke-linecap="round" stroke-linejoin="round"/>
</svg>

<svg xmlns="http://www.w3.org/2000/svg" width="192" height="192" fill="none" viewBox="0 0 192 192"><path stroke="#000" stroke-linecap="round" stroke-linejoin="round" stroke-width="12" d="M104.746 164.165c-13.967-2.598-29.047-7.812-38.752-13.398-14.463-8.324-30.342-23.36-37.74-35.734-8.154-13.642-8.314-23.029-.601-35.289 3.79-6.023 8.44-11.125 15.033-16.492 6.67-5.43 14.378-9.834 19.092-10.91 3.13-.714 3.482-.961 3.61-2.54.427-5.263 9.963-18.257 16.457-22.425L83.99 26l4.522 4.02c7.398 6.58 13.774 15.577 15.196 21.444.477 1.968.728 2.144 3.993 2.809 7.639 1.555 20.779 8.423 27.28 14.26l2.966 2.662 4.001-.602c5.746-.865 18.557.712 24.014 2.956L170 75.21l-.599 2.878c-1.388 6.672-6.591 16.825-12.172 23.754-1.831 2.274-1.932 2.63-1.605 5.693.192 1.797.108 6.244-.188 9.882-1.742 21.466-13.332 40.821-27.91 46.611-4.528 1.798-5.138 1.877-11.31 1.479-3.588-.232-8.75-.836-11.47-1.342h0Z"/><path fill="#000" stroke="#000" stroke-linecap="round" stroke-linejoin="round" stroke-width="2.606" d="M126.372 114.325a4.619 4.619 0 1 0-4.23-4.977 4.618 4.618 0 0 0 4.23 4.977ZM73.032 83.53a4.62 4.62 0 1 0 .747-9.209 4.62 4.62 0 0 0-.747 9.208Z"/></svg>
